X:1
T:As Shadows Lengthen
T:As Shadows Lengthen
T:William Henry Monk, 1861
T:Richard W. Adams, 2009
T:© 2009 Richard W. Adams. Reproduce or publish freely for Christian worship or devotions. Courtesy of the Cyber Hymnal™
T:© 2009 Richard W. Adams. Reproduce or publish freely for Christian worship or devotions. Courtesy of the Cyber Hymnal™
C:William Henry Monk, 1861
Z:© 2009 Richard W. Adams. Reproduce or publish freely for Christian worship or devotions.
Z:Courtesy of the Cyber Hymnal™
%%score ( 1 2 ) ( 3 4 )
L:1/8
Q:1/4=115
M:4/4
K:Eb
V:1 treble 
V:2 treble 
V:3 bass 
V:4 bass 
V:1
 [EG]4 [DG]2 [DF]2 | E4 [EB]4 | [Ec]2 [DB]2 [EB]2 [FA]2 | [EG]8 | [EG]4 [EA]2 [EB]2 | [Ec]4 [EB]4 | %6
w: 1.~As sha- dows|length- en|and the night grows|cold,|Not see- ing|how life’s|
w: 2.~One thing we|pray, when|ev- ening round us|falls,|Show us the|place on|
w: 3.~That we may|tell to|gen- e- ra- tions|new,|Tell of a|faith- ful-|
w: 4.~Then, when our|task is|done and comes the|wing|Of death’s bright|an- gel,|
 [EA]2 F2 [EG]2 [E=A]2 | [DB]8 | [EG]4 [DG]2 [DF]2 | E4 [EB]4 | [EB]2 [EA]2 [=EA]2 [EG]2 | F8 | %12
w: pag- es will un-|fold,|Give us Your|peace as,|yield- ing to Your|will,|
w: mem- ory’s dark- ened|walls,|As dim- ming|eye and|fail- ing flesh grow|weak,|
w: ness for- ev- er|true,|Tell of a|power that|keeps us to the|end,|
w: teach us how to|sing,|With soar- ing|con- fi-|dence to mount on|high,|
 [DF]4 [EG]2 [DA]2 | [EG]2 [DF]2 E2 [FA]2 | [EG]4 [DF]4 x2 | E8 |] %16
w: We trust the|au- thor loves and|keeps us|still.|
w: Show us where|pic- tures of Your|love still|speak,|
w: Tell of our|God, pro- tect- or,|guide and|friend.|
w: Fly- ing to|gold- en streets be-|yond the|sky.|
V:2
 x8 | E4 x4 | x8 | x8 | x8 | x8 | x8 | x8 | x8 | E4 x4 | x8 | F8 | x8 | x4 E2 x2 | x10 | E8 |] %16
V:3
 [E,B,]4 [B,,B,]2 [B,,A,]2 | [C,G,]4 [G,,E,]4 | [A,,E,]2 [B,,B,]2 [C,B,]2 [D,B,]2 | [E,B,]8 | %4
 B,4 [C,A,]2 [B,,G,]2 | [A,,A,]4 [E,G,]4 | [F,C]2 [D,B,]2 [E,B,]2 [C,E,]2 | [B,,F,]8 | %8
 (G,2 A,2) [B,,B,]2 [B,,A,]2 | [C,G,]4 (E2 D2) | (C2 C[B,,C]) [C,C]2 [C,B,]2 | [F,A,]8 | %12
 [A,B,]4 [G,B,]2 [F,B,]2 | [E,B,]2 [B,,A,]2 [C,G,]2 [A,,C]2 | B,6 z2 A,2 | [E,G,]8 |] %16
V:4
 x8 | x8 | x8 | x8 | (E,2 D,2) x4 | x8 | x8 | x8 | E,4 x4 | x4 G,,4 | A,,3 x5 | x8 | x8 | x8 | %14
 B,,4 B,,4 x2 | x8 |] %16

